!!!SOCIAL_FUNCTION:	songs connected with legends
!!!PDT:	1929
!!!OTL: No_32_Song_After_Making_the_Bows_and_Arrows.krn
!!!REG: Southwest
!!!LANG: Non-Tone
!!!LING_GROUP: Uto-Aztecan
**kern
*staff1
=1-
*clefF4
*k[f#c#g#]
*M2/4
4d\
4c#\
=2||
*M3/4
8A\L
8B\J
8.A\L
16F#\Jk
8F#/L
16C#/L
16C#/JJ
=3
4F#\
4F#\
4r
=4!|:
*M2/4
4c#\
16A\LK
8A\
16G#\Jk
=5
(16.G#\LL
32F#\JK)
8F#\J
8F#/L
16C#/L
16C#/JJ
=6||
*M3/4
4F#\
4F#\
4r
=7
4c#\
4.A\
8G#\
=8||
*M2/4
4A\
8.G#\L
16F#\Jk
=9
12F#\L
12G#\
12F#\J
8.F#/L
16C#/Jk
=10||
*M3/4
8F#\L
8F#\J
4F#\
4r
=11||
*M2/4
16G#\LK
8.F#\J
8.F#/L
16C#/Jk
=12
8F#\L
8F#\J
8.F#/L
16C#/Jk
=13||
*M3/4
4F#\
2F#\
==:|!
*-
